modules/hawcons-stroke/icons/icon-25-hockey-stick.svg

<?xml version="1.0" encoding="UTF-8" standalone="no"?>
<svg width="32px" height="32px" viewBox="0 0 32 32" version="1.1" xmlns="http://www.w3.org/2000/svg" xmlns:xlink="http://www.w3.org/1999/xlink" xmlns:sketch="http://www.bohemiancoding.com/sketch/ns">
    <!-- Generator: Sketch 3.0.3 (7891) - http://www.bohemiancoding.com/sketch -->
    <title>icon 25 hockey stick</title>
    <desc>Created with Sketch.</desc>
    <defs></defs>
    <g id="Page-1" stroke="none" stroke-width="1" fill="none" fill-rule="evenodd" sketch:type="MSPage">
        <g id="icon-25-hockey-stick" sketch:type="MSArtboardGroup" fill="#929292">
            <path d="M11.5,21 C12.3284271,21 13,20.3284271 13,19.5 C13,18.6715729 12.3284271,18 11.5,18 C10.6715729,18 10,18.6715729 10,19.5 C10,20.3284271 10.6715729,21 11.5,21 L11.5,21 L11.5,21 Z M16.4433876,25.1044865 C16.2035453,25.5873343 15.5536144,25.9971093 15.0029699,25.9971094 L8.99703014,25.9971098 C8.45303631,25.9971098 8,25.5498617 8,24.9981533 L8,23.9960664 C8,23.4397702 8.44358641,22.9971098 8.99077797,22.9971098 L14,22.9971098 L21.7231009,7.59803332 C21.9925622,7.06075495 22.6532935,6.84492148 23.1973862,7.11894538 L23.9558731,7.50094565 C24.5026078,7.77630014 24.7201172,8.44186909 24.4475951,8.99050746 L16.4433876,25.1044865 L16.4433876,25.1044865 Z M21.2146926,10.8423596 L22.6169803,8.04634078 C22.6377733,8.00488174 22.6958017,7.98599422 22.7475775,8.01207034 L23.5060645,8.3940706 C23.5590778,8.42076998 23.5809744,8.48730656 23.5519976,8.54564226 L22.1695049,11.3288608 L21.2146926,10.8423596 L21.2146926,10.8423596 L21.2146926,10.8423596 Z M20.7663761,11.7362572 L14.8938794,23.4454173 L14.617189,23.9971098 L14,23.9971098 C14,23.9971098 9,23.9925135 9,23.9960664 C9,23.9960664 9.00242796,24.9971098 8.99703007,24.9971098 L15.0029698,24.9971094 C15.1691189,24.9971093 15.4747354,24.8066941 15.54779,24.6596213 L21.7246165,12.224505 L20.7663761,11.7362572 L20.7663761,11.7362572 L20.7663761,11.7362572 Z" id="hockey-stick" sketch:type="MSShapeGroup"></path>
        </g>
    </g>
</svg>

<svg width="32" height="32" xmlns="http://www.w3.org/2000/svg"><path d="M11.5 21a1.5 1.5 0 1 0 0-3 1.5 1.5 0 0 0 0 3zm4.943 4.104c-.24.483-.89.893-1.44.893H8.997c-.544 0-.997-.447-.997-.999v-1.002c0-.556.444-.999.99-.999H14l7.723-15.399c.27-.537.93-.753 1.474-.48l.759.383c.547.275.764.94.492 1.49l-8.005 16.113zm4.772-14.262l1.402-2.796c.02-.041.079-.06.13-.034l.76.382a.112.112 0 0 1 .045.152l-1.382 2.783-.955-.487zm-.449.894l-5.872 11.71-.277.551H14s-5-.004-5 0c0 0 .002 1-.003 1h6.006c.166 0 .472-.19.545-.337l6.177-12.435-.959-.489z" fill="#929292" fill-rule="evenodd"/></svg>
